!! 00008] TT[TB
!! Eigene Aufnahme
!!!OTL: San pi zaoliu ma
!!!ARE: Neimeng Erduos
!! Ethnic Group: Menggu
!! IV, 334
!!!SCT: C0196
!!!YEM: Copyright 1995, estate of Helmut Schaffrath.
**kern
*ICvox
*Ivox
*M4/4
*k[]
*C:
{4a
8a
8dd
4d
8e
8g
=1
2.a
4e}
=2
{8a
8g
8e
8a
4A
4c
=3
1d}
=4
{8a
8g
8e
8d
4c
4d
=5
4.dd
8gg
4.ee
8dd}
=6
{8.cc
16dd
8ee
8gg
4dd
8cc
8ee
=7
1a}
==
!!!AGN: Yan ge. Jiuxiyanhui shang chang
!! Grundsaetzliche Anmerkung: Verzierung sind irrelevant, da Saenger
!!    ohnehin ihre eigenen singen. Gilt nicht fuer chang diao.
!!    Saenger: Chao Lun Batou.- Leichte Variante.
!!    Trotzdem: Vereinzelt Verzierungen!
!!!ONB: ESAC (Essen Associative Code) Database: CHINA
!!!AMT: simple quadruple
!!!AIN: vox
!!!EED: Helmut Schaffrath
!!!EEV: 1.0
*-
